_includes/icons/ios-car.svg

<svg fill="#666" height="50" viewBox="0 0 50 50" width="50" xmlns="http://www.w3.org/2000/svg"><path d="m25 8c-3.546875 0-5.871094.238281-7.34375.5-1.386719.246094-1.988281.53125-2.0625.5625-.003906.003906-.125.03125-.125.03125-1.480469.5-3.734375 1.1875-4.78125 3.21875-.253906.492188-.632812 1.492188-1.1875 2.90625-.425781 1.085938-.925781 2.457031-1.4375 3.78125h-2.96875c-1.484375 0-2.585937.496094-3.25 1.25-.664062.753906-.84375 1.648438-.84375 2.34375 0 .777344.40625 1.554688 1.03125 1.9375.625.382813 1.324219.46875 2.0625.46875h1.65625c-.15625.417969-.6875 1.8125-.6875 1.8125l-.0625.1875v12c0 1.644531 1.355469 3 3 3h4c1.644531 0 3-1.355469 3-3v-1h20v1c0 1.644531 1.355469 3 3 3h4c1.644531 0 3-1.355469 3-3v-12l-.0625-.1875s-.523437-1.390625-.6875-1.8125h1.65625c.738281 0 1.4375-.085937 2.0625-.46875.625-.382812 1.03125-1.160156 1.03125-1.9375 0-.695312-.179687-1.589844-.84375-2.34375-.664062-.753906-1.765625-1.25-3.25-1.25h-2.96875c-.0625-.148437-.125-.292969-.15625-.375-1.082031-2.796875-2.125-5.460937-2.5-6.3125-.957031-2.175781-3.417969-2.84375-4.75-3.21875-.042969-.011719-.117187-.050781-.15625-.0625v.03125c-.09375-.039062-.664062-.316406-2.03125-.5625-1.472656-.261719-3.796875-.5-7.34375-.5zm0 2c3.453125 0 5.671875.261719 7 .5s1.65625.40625 1.65625.40625l.09375.03125.0625.03125c1.21875.347656 3.183594 1.148438 3.625 2.15625.289063.65625 1.425781 3.582031 2.46875 6.25.25.636719.667969 1.675781.53125 2.3125-.070312.320313-.191406.550781-.65625.8125s-1.339844.5-2.78125.5h-24c-1.441406 0-2.316406-.238281-2.78125-.5s-.585937-.492187-.65625-.8125c-.136719-.636719.28125-1.675781.53125-2.3125l-.0625-.03125c.457031-1.191406.925781-2.425781 1.3125-3.40625.550781-1.402344 1.042969-2.527344 1.125-2.6875.554688-1.078125 2.285156-1.8125 3.75-2.3125h.0625l.0625-.03125s.328125-.167969 1.65625-.40625 3.546875-.5 7-.5zm-19.90625 11h2.15625c-.378906.996094-.445312 1.191406-.75 2h-2.40625c-.558594 0-.90625-.097656-1-.15625s-.09375.03125-.09375-.25c0-.363281.101563-.757812.34375-1.03125.242188-.273437.664063-.5625 1.75-.5625zm37.59375 0h2.21875c1.085938 0 1.507813.289063 1.75.5625.242188.273438.34375.667969.34375 1.03125 0 .28125 0 .191406-.09375.25s-.441406.15625-1 .15625h-2.4375c-.320312-.820312-.390625-.988281-.78125-2zm-34.25 2.59375c.230469.242188.496094.476563.8125.65625.902344.507813 2.097656.75 3.75.75h24c1.652344 0 2.847656-.242187 3.75-.75.316406-.179687.582031-.414062.8125-.65625.585938 1.539063 1.402344 3.695313 1.4375 3.78125v7.78125c0 .46875-.390625.84375-.90625.84375h-34.1875c-.515625 0-.90625-.375-.90625-.84375v-7.78125c.03125-.085937.867188-2.257812 1.4375-3.78125zm2.5625 2.40625c-1.644531 0-3 1.355469-3 3 0 .886719.367188 1.675781.875 2.21875.507813.542969 1.121094.910156 1.71875 1.25.847656.480469 1.425781.847656 2.09375 1.125s1.386719.40625 2.3125.40625c2.195313 0 4-1.800781 4-4s-1.804687-4-4-4zm24 0c-2.195312 0-4 1.800781-4 4s1.804688 4 4 4c.925781 0 1.644531-.128906 2.3125-.40625s1.246094-.644531 2.09375-1.125c.597656-.339844 1.210938-.707031 1.71875-1.25.507813-.542969.875-1.332031.875-2.21875 0-1.644531-1.355469-3-3-3zm-24 2h4c1.117188 0 2 .882813 2 2 0 1.117188-.882812 2-2 2-.75 0-1.121094-.066406-1.5625-.25s-.992187-.53125-1.875-1.03125c-.5625-.316406-.976562-.617187-1.21875-.875-.242187-.257812-.34375-.425781-.34375-.84375 0-.5625.4375-1 1-1zm24 0h4c.5625 0 1 .4375 1 1 0 .417969-.101562.585938-.34375.84375-.242187.257813-.65625.558594-1.21875.875-.882812.5-1.433594.847656-1.875 1.03125s-.8125.25-1.5625.25c-1.117187 0-2-.882812-2-2 0-1.117187.882813-2 2-2zm-28 9.84375c.289063.09375.589844.15625.90625.15625h5.09375v1c0 .5625-.4375 1-1 1h-4c-.5625 0-1-.4375-1-1zm36 0v1.15625c0 .5625-.4375 1-1 1h-4c-.5625 0-1-.4375-1-1v-1h5.09375c.316406 0 .617188-.0625.90625-.15625z"/></svg>

<svg xmlns="http://www.w3.org/2000/svg" viewBox="0 0 50 50" width="50" height="50" fill="#666"><path d="M 25 8 C 21.453125 8 19.128906 8.238281 17.65625 8.5 C 16.269531 8.746094 15.667969 9.03125 15.59375 9.0625 C 15.589844 9.066406 15.46875 9.09375 15.46875 9.09375 C 13.988281 9.59375 11.734375 10.28125 10.6875 12.3125 C 10.433594 12.804688 10.054688 13.804688 9.5 15.21875 C 9.074219 16.304688 8.574219 17.675781 8.0625 19 L 5.09375 19 C 3.609375 19 2.507813 19.496094 1.84375 20.25 C 1.179688 21.003906 1 21.898438 1 22.59375 C 1 23.371094 1.40625 24.148438 2.03125 24.53125 C 2.65625 24.914063 3.355469 25 4.09375 25 L 5.75 25 C 5.59375 25.417969 5.0625 26.8125 5.0625 26.8125 L 5 27 L 5 39 C 5 40.644531 6.355469 42 8 42 L 12 42 C 13.644531 42 15 40.644531 15 39 L 15 38 L 35 38 L 35 39 C 35 40.644531 36.355469 42 38 42 L 42 42 C 43.644531 42 45 40.644531 45 39 L 45 27 L 44.9375 26.8125 C 44.9375 26.8125 44.414063 25.421875 44.25 25 L 45.90625 25 C 46.644531 25 47.34375 24.914063 47.96875 24.53125 C 48.59375 24.148438 49 23.371094 49 22.59375 C 49 21.898438 48.820313 21.003906 48.15625 20.25 C 47.492188 19.496094 46.390625 19 44.90625 19 L 41.9375 19 C 41.875 18.851563 41.8125 18.707031 41.78125 18.625 C 40.699219 15.828125 39.65625 13.164063 39.28125 12.3125 C 38.324219 10.136719 35.863281 9.46875 34.53125 9.09375 C 34.488281 9.082031 34.414063 9.042969 34.375 9.03125 L 34.375 9.0625 C 34.28125 9.023438 33.710938 8.746094 32.34375 8.5 C 30.871094 8.238281 28.546875 8 25 8 Z M 25 10 C 28.453125 10 30.671875 10.261719 32 10.5 C 33.328125 10.738281 33.65625 10.90625 33.65625 10.90625 L 33.75 10.9375 L 33.8125 10.96875 C 35.03125 11.316406 36.996094 12.117188 37.4375 13.125 C 37.726563 13.78125 38.863281 16.707031 39.90625 19.375 C 40.15625 20.011719 40.574219 21.050781 40.4375 21.6875 C 40.367188 22.007813 40.246094 22.238281 39.78125 22.5 C 39.316406 22.761719 38.441406 23 37 23 L 13 23 C 11.558594 23 10.683594 22.761719 10.21875 22.5 C 9.753906 22.238281 9.632813 22.007813 9.5625 21.6875 C 9.425781 21.050781 9.84375 20.011719 10.09375 19.375 L 10.03125 19.34375 C 10.488281 18.152344 10.957031 16.917969 11.34375 15.9375 C 11.894531 14.535156 12.386719 13.410156 12.46875 13.25 C 13.023438 12.171875 14.753906 11.4375 16.21875 10.9375 L 16.28125 10.9375 L 16.34375 10.90625 C 16.34375 10.90625 16.671875 10.738281 18 10.5 C 19.328125 10.261719 21.546875 10 25 10 Z M 5.09375 21 L 7.25 21 C 6.871094 21.996094 6.804688 22.191406 6.5 23 L 4.09375 23 C 3.535156 23 3.1875 22.902344 3.09375 22.84375 C 3 22.785156 3 22.875 3 22.59375 C 3 22.230469 3.101563 21.835938 3.34375 21.5625 C 3.585938 21.289063 4.007813 21 5.09375 21 Z M 42.6875 21 L 44.90625 21 C 45.992188 21 46.414063 21.289063 46.65625 21.5625 C 46.898438 21.835938 47 22.230469 47 22.59375 C 47 22.875 47 22.785156 46.90625 22.84375 C 46.8125 22.902344 46.464844 23 45.90625 23 L 43.46875 23 C 43.148438 22.179688 43.078125 22.011719 42.6875 21 Z M 8.4375 23.59375 C 8.667969 23.835938 8.933594 24.070313 9.25 24.25 C 10.152344 24.757813 11.347656 25 13 25 L 37 25 C 38.652344 25 39.847656 24.757813 40.75 24.25 C 41.066406 24.070313 41.332031 23.835938 41.5625 23.59375 C 42.148438 25.132813 42.964844 27.289063 43 27.375 L 43 35.15625 C 43 35.625 42.609375 36 42.09375 36 L 7.90625 36 C 7.390625 36 7 35.625 7 35.15625 L 7 27.375 C 7.03125 27.289063 7.867188 25.117188 8.4375 23.59375 Z M 11 26 C 9.355469 26 8 27.355469 8 29 C 8 29.886719 8.367188 30.675781 8.875 31.21875 C 9.382813 31.761719 9.996094 32.128906 10.59375 32.46875 C 11.441406 32.949219 12.019531 33.316406 12.6875 33.59375 C 13.355469 33.871094 14.074219 34 15 34 C 17.195313 34 19 32.199219 19 30 C 19 27.800781 17.195313 26 15 26 Z M 35 26 C 32.804688 26 31 27.800781 31 30 C 31 32.199219 32.804688 34 35 34 C 35.925781 34 36.644531 33.871094 37.3125 33.59375 C 37.980469 33.316406 38.558594 32.949219 39.40625 32.46875 C 40.003906 32.128906 40.617188 31.761719 41.125 31.21875 C 41.632813 30.675781 42 29.886719 42 29 C 42 27.355469 40.644531 26 39 26 Z M 11 28 L 15 28 C 16.117188 28 17 28.882813 17 30 C 17 31.117188 16.117188 32 15 32 C 14.25 32 13.878906 31.933594 13.4375 31.75 C 12.996094 31.566406 12.445313 31.21875 11.5625 30.71875 C 11 30.402344 10.585938 30.101563 10.34375 29.84375 C 10.101563 29.585938 10 29.417969 10 29 C 10 28.4375 10.4375 28 11 28 Z M 35 28 L 39 28 C 39.5625 28 40 28.4375 40 29 C 40 29.417969 39.898438 29.585938 39.65625 29.84375 C 39.414063 30.101563 39 30.402344 38.4375 30.71875 C 37.554688 31.21875 37.003906 31.566406 36.5625 31.75 C 36.121094 31.933594 35.75 32 35 32 C 33.882813 32 33 31.117188 33 30 C 33 28.882813 33.882813 28 35 28 Z M 7 37.84375 C 7.289063 37.9375 7.589844 38 7.90625 38 L 13 38 L 13 39 C 13 39.5625 12.5625 40 12 40 L 8 40 C 7.4375 40 7 39.5625 7 39 Z M 43 37.84375 L 43 39 C 43 39.5625 42.5625 40 42 40 L 38 40 C 37.4375 40 37 39.5625 37 39 L 37 38 L 42.09375 38 C 42.410156 38 42.710938 37.9375 43 37.84375 Z"/></svg>
